X: 083
M: C
L: 1/8
K: D
|:\
f2ed cAeg | fdAf ecBA |\
|:\
f2ed ceac | dfed cBAG |
f2ed ecBA | g2bg afed |\

